COLOR/categories 16/16/preferences-system-details.svg

<svg height="16" width="16" xmlns="http://www.w3.org/2000/svg"><g fill="#808080"><circle cx="8" cy="8" fill="#1a7fd4" r="7.5"/><text style="font-size:14.109532;font-family:sans-serif;letter-spacing:0;word-spacing:0;fill:#fff;stroke-width:1.153846" x="6.222504" y="13.769248"><tspan fill="#fff" font-family="Ubuntu" stroke-width=".236232" x="6.222504" y="13.769248">i</tspan></text><path d="m8 .5a7.5 7.5 0 0 0 -7.5 7.5 7.5 7.5 0 0 0 .00976562.2871094 7.5 7.5 0 0 1 7.49023438-7.2871094 7.5 7.5 0 0 1 7.490234 7.2128906 7.5 7.5 0 0 0 .009766-.2128906 7.5 7.5 0 0 0 -7.5-7.5z" fill="#fff" opacity=".3"/><path d="m8.000019 15.5a7.5 7.5 0 0 0 7.5-7.4999997 7.5 7.5 0 0 0 -.0098-.28711 7.5 7.5 0 0 1 -7.490234 7.2871097 7.5 7.5 0 0 1 -7.490234-7.2128907 7.5 7.5 0 0 0 -.00977.212891 7.5 7.5 0 0 0 7.5 7.4999997z" fill="#020000" opacity=".2"/></g></svg>

<?xml version="1.0" encoding="UTF-8" standalone="no"?>
<svg
   xmlns:dc="http://purl.org/dc/elements/1.1/"
   xmlns:cc="http://creativecommons.org/ns#"
   xmlns:rdf="http://www.w3.org/1999/02/22-rdf-syntax-ns#"
   xmlns:svg="http://www.w3.org/2000/svg"
   xmlns="http://www.w3.org/2000/svg"
   xmlns:sodipodi="http://sodipodi.sourceforge.net/DTD/sodipodi-0.dtd"
   xmlns:inkscape="http://www.inkscape.org/namespaces/inkscape"
   width="16"
   height="16"
   version="1.1"
   id="svg8"
   sodipodi:docname="dialog-information.svg"
   inkscape:version="0.92.4 (5da689c313, 2019-01-14)">
  <metadata
     id="metadata14">
    <rdf:RDF>
      <cc:Work
         rdf:about="">
        <dc:format>image/svg+xml</dc:format>
        <dc:type
           rdf:resource="http://purl.org/dc/dcmitype/StillImage" />
        <dc:title />
      </cc:Work>
    </rdf:RDF>
  </metadata>
  <defs
     id="defs12" />
  <sodipodi:namedview
     pagecolor="#ffffff"
     bordercolor="#666666"
     borderopacity="1"
     objecttolerance="10"
     gridtolerance="10"
     guidetolerance="10"
     inkscape:pageopacity="0"
     inkscape:pageshadow="2"
     inkscape:window-width="1920"
     inkscape:window-height="1016"
     id="namedview10"
     showgrid="false"
     inkscape:zoom="36.478281"
     inkscape:cx="-0.2258579"
     inkscape:cy="9.3069076"
     inkscape:window-x="0"
     inkscape:window-y="27"
     inkscape:window-maximized="1"
     inkscape:current-layer="g6" />
  <g
     id="g6"
     style="fill:#808080">
    <circle
       style="display:inline;opacity:1;fill:#1a7fd4;fill-opacity:1;stroke:none;stroke-width:2.15700412;stroke-linecap:round;stroke-linejoin:round;stroke-miterlimit:4;stroke-dasharray:none;stroke-opacity:1;enable-background:new"
       id="path9498-6-5-6-8"
       cx="8"
       cy="8"
       r="7.5" />
    <text
       xml:space="preserve"
       style="font-style:normal;font-weight:normal;font-size:14.10953236px;line-height:1.25;font-family:sans-serif;letter-spacing:0px;word-spacing:0px;display:inline;fill:#ffffff;fill-opacity:1;stroke:none;stroke-width:1.15384614;enable-background:new"
       x="6.2225037"
       y="13.769248"
       id="text6287-9"><tspan
         sodipodi:role="line"
         id="tspan6285-1"
         x="6.2225037"
         y="13.769248"
         style="font-style:normal;font-variant:normal;font-weight:normal;font-stretch:normal;font-family:Ubuntu;-inkscape-font-specification:Ubuntu;fill:#ffffff;fill-opacity:1;stroke-width:0.23623212">i</tspan></text>
    <path
       style="display:inline;opacity:0.3;fill:#ffffff;fill-opacity:1;stroke:none;stroke-width:2.15700412;stroke-linecap:round;stroke-linejoin:round;stroke-miterlimit:4;stroke-dasharray:none;stroke-opacity:1;enable-background:new"
       d="M 8 0.5 A 7.5 7.5 0 0 0 0.5 8 A 7.5 7.5 0 0 0 0.50976562 8.2871094 A 7.5 7.5 0 0 1 8 1 A 7.5 7.5 0 0 1 15.490234 8.2128906 A 7.5 7.5 0 0 0 15.5 8 A 7.5 7.5 0 0 0 8 0.5 z "
       id="circle829" />
    <path
       id="path834"
       d="m 8.000019,15.5 a 7.5,7.5 0 0 0 7.5,-7.4999997 7.5,7.5 0 0 0 -0.0098,-0.28711 A 7.5,7.5 0 0 1 7.999985,15 7.5,7.5 0 0 1 0.509751,7.7871093 7.5,7.5 0 0 0 0.499981,8.0000003 7.5,7.5 0 0 0 7.999981,15.5 Z"
       style="display:inline;opacity:0.2;fill:#020000;fill-opacity:1;stroke:none;stroke-width:2.15700412;stroke-linecap:round;stroke-linejoin:round;stroke-miterlimit:4;stroke-dasharray:none;stroke-opacity:1;enable-background:new"
       inkscape:connector-curvature="0" />
  </g>
</svg>
